X: 23425
T: Les Trois Princesses
R: reel
M: 4/4
K: Bminor
FA|B2 AB B2 BA|Ad zc B2 BA|BA A2 AF A2-|
A4 zDDE|G4 F2 D2-|D4 zB,A,B,|F6 GF|E6:|
DE|F4F2 EF|G3 F GABc|d4 d e2d|c4- cBAG|
F4 F2 EF|G6 F2|A8-|A2 AB AGFD|
F4F2 EF|G3 F GABc|d4 d e2f|c4- cBAG|
F4 F2 EF|G6 F2|D8-|D6||

